X: 30213
T: Old Hag In The Corner, The
R: jig
M: 6/8
K: Dmixolydian
|:c|B^AB c2 =A|B^AB c2 =A|BdB AFD|EFE E2 c|
B^AB cc/B/=A|B^AB c2 =A|B/c/dB AFA|DED D2:|
|:G|F2 A AF/G/A|BGB AFA|BdB AFD|E2 E EFG|
FDA AFA|B/c/dB A2 F|BdB AF/G/A|DD/D/D D2:|
|:a/g/|fdd edd|fdd dcA|BdB AFd|EFE E2 a/g/|
fdd ecA|fdB A2 F|DFA d2 [^cg]|dcA d2:|

